X: 38487
T: Steampacket, The
R: reel
M: 4/4
K: Gmajor
dgg/g/g agfe|dgg/g/g fdcA|dgg/g/g agfe|d^cde fd=cA|
dgg/g/g agfg|abag fefg|afge fde^c|d/d/deg fdcA||

